svg/file/task_2_fill.svg

<?xml version="1.0" encoding="UTF-8"?>
<svg width="24px" height="24px" viewBox="0 0 24 24" version="1.1" xmlns="http://www.w3.org/2000/svg" xmlns:xlink="http://www.w3.org/1999/xlink">
    <title>task_2_fill</title>
    <g id="Icon" stroke="none" stroke-width="1" fill="none" fill-rule="evenodd">
        <g id="File" transform="translate(-720.000000, -432.000000)">
            <g id="task_2_fill" transform="translate(720.000000, 432.000000)">
                <path d="M24,0 L24,24 L0,24 L0,0 L24,0 Z M12.5935,23.2578 L12.5819,23.2595 L12.5109,23.295 L12.4919,23.2987 L12.4767,23.295 L12.4057,23.2595 C12.3958,23.2564 12.387,23.259 12.3821,23.2649 L12.378,23.2758 L12.3609,23.7031 L12.3659,23.7235 L12.3769,23.7357 L12.4805,23.8097 L12.4953,23.8136 L12.5071,23.8097 L12.6107,23.7357 L12.6233,23.7197 L12.6267,23.7031 L12.6096,23.2758 C12.6076,23.2657 12.601,23.2593 12.5935,23.2578 Z M12.8584,23.1453 L12.8445,23.1473 L12.6598,23.2397 L12.6499,23.2499 L12.6472,23.2611 L12.6651,23.6906 L12.6699,23.7034 L12.6784,23.7105 L12.8793,23.8032 C12.8914,23.8069 12.9022,23.803 12.9078,23.7952 L12.9118,23.7812 L12.8777,23.1665 C12.8753,23.1546 12.8674,23.147 12.8584,23.1453 Z M12.143,23.1473 C12.1332,23.1424 12.1222,23.1453 12.1156,23.1526 L12.1099,23.1665 L12.0758,23.7812 C12.0751,23.7927 12.0828,23.8019 12.0926,23.8046 L12.1083,23.8032 L12.3092,23.7105 L12.3186,23.7024 L12.3225,23.6906 L12.3404,23.2611 L12.3372,23.2485 L12.3278,23.2397 L12.143,23.1473 Z" id="MingCute" fill-rule="nonzero"></path>
                <path d="M7.41604,3 C7.14845,3.61246 7,4.2889 7,5 C7,6.10457 7.89543,7 9,7 L15,7 C16.1046,7 17,6.10457 17,5 C17,4.2889 16.8516,3.61246 16.584,3 L18,3 C19.1046,3 20,3.89543 20,5 L20,20 C20,21.1046 19.1046,22 18,22 L6,22 C4.89543,22 4,21.1046 4,20 L4,5 C4,3.89543 4.89543,3 6,3 L7.41604,3 Z M12,14 L9,14 C8.44772,14 8,14.4477 8,15 C8,15.5523 8.44772,16 9,16 L12,16 C12.5523,16 13,15.5523 13,15 C13,14.4477 12.5523,14 12,14 Z M15,10 L9,10 C8.44772,10 8,10.4477 8,11 C8,11.51285 8.38604429,11.9355092 8.88337975,11.9932725 L9,12 L15,12 C15.5523,12 16,11.5523 16,11 C16,10.4477 15.5523,10 15,10 Z M12,2 C12.8885,2 13.6868,2.38625 14.2361,3 C14.6636,3.477684 14.940359,4.0931733 14.9914358,4.77162147 L15,5 L9,5 C9,4.27513 9.25709,3.6103 9.68505,3.09172 L9.76389,3 L9.76389,3 C10.3132,2.38625 11.1115,2 12,2 Z" id="形状" fill="#09244B"></path>
            </g>
        </g>
    </g>
</svg>

<svg xmlns="http://www.w3.org/2000/svg" width="24" height="24"><g fill="none" fill-rule="evenodd"><path d="M24 0v24H0V0h24ZM12.594 23.258l-.012.002-.071.035-.02.004-.014-.004-.071-.036c-.01-.003-.019 0-.024.006l-.004.01-.017.428.005.02.01.013.104.074.015.004.012-.004.104-.074.012-.016.004-.017-.017-.427c-.002-.01-.009-.017-.016-.018Zm.264-.113-.014.002-.184.093-.01.01-.003.011.018.43.005.012.008.008.201.092c.012.004.023 0 .029-.008l.004-.014-.034-.614c-.003-.012-.01-.02-.02-.022Zm-.715.002a.023.023 0 0 0-.027.006l-.006.014-.034.614c0 .012.007.02.017.024l.015-.002.201-.093.01-.008.003-.011.018-.43-.003-.012-.01-.01-.184-.092Z"/><path fill="#09244B" d="M7.416 3A4.983 4.983 0 0 0 7 5a2 2 0 0 0 2 2h6a2 2 0 0 0 2-2c0-.711-.148-1.388-.416-2H18a2 2 0 0 1 2 2v15a2 2 0 0 1-2 2H6a2 2 0 0 1-2-2V5a2 2 0 0 1 2-2h1.416ZM12 14H9a1 1 0 1 0 0 2h3a1 1 0 1 0 0-2Zm3-4H9a1 1 0 0 0-.117 1.993L9 12h6a1 1 0 1 0 0-2Zm-3-8c.889 0 1.687.386 2.236 1 .428.478.704 1.093.755 1.772L15 5H9c0-.725.257-1.39.685-1.908L9.764 3c.55-.614 1.348-1 2.236-1Z"/></g></svg>
